svg/white/amp.svg

<svg xmlns="http://www.w3.org/2000/svg" width="32" height="32" viewBox="0 0 32 32">
  <path fill="#FFF" fill-rule="evenodd" d="M16,32 C7.163444,32 0,24.836556 0,16 C0,7.163444 7.163444,0 16,0 C24.836556,0 32,7.163444 32,16 C32,24.836556 24.836556,32 16,32 Z M8.30322091,11.9569617 C7.37554643,11.9569617 6.79358262,12.402624 6.55713051,13.2938918 C6.52077732,13.5667243 6.534392,13.8440765 6.59811668,14.1260336 C6.66178452,14.4079624 6.77087253,14.6626591 6.92549442,14.8899816 C7.08000261,15.1173609 7.2800731,15.2947105 7.52573431,15.4220304 C7.77122498,15.5493503 8.06674038,15.603985 8.41230893,15.585764 C9.39444214,15.6220924 10.2310773,15.9950127 10.9222144,16.7044111 C11.6133515,17.395617 11.9588916,18.2323354 11.9588916,19.2145663 C11.9588916,19.7239028 12.1362236,20.1558923 12.4908875,20.5105915 C12.8455799,20.8652908 13.2775832,21.0426404 13.7868691,21.0426404 C14.2778504,21.0426404 14.7006731,20.8652908 15.055337,20.5105915 C15.4100294,20.1558923 15.5874182,19.7239028 15.5874182,19.2145663 C15.5874182,18.7416719 15.4192101,18.3278182 15.0826517,17.973119 C14.7462069,17.6184197 14.3415751,17.4320307 13.8686425,17.413838 C12.9047001,17.4320307 12.0317401,17.0954672 11.2495637,16.4042613 C10.5403211,15.7130839 10.1674379,14.8491334 10.1310278,13.8122394 C10.0946746,12.8117874 10.4493386,11.9387406 11.1950197,11.1929285 C11.9407861,10.4471732 12.8319652,10.0924739 13.8686425,10.1288023 C14.3415751,10.1106666 14.7462069,9.92422063 15.0826517,9.56952139 C15.4192101,9.21482215 15.5874182,8.79187216 15.5874182,8.30084198 C15.5874182,7.80969809 15.4100294,7.38683338 15.055337,7.03213414 C14.7006731,6.6774349 14.2778504,6.5 13.7868691,6.5 C13.2775832,6.5 12.8455799,6.6774349 12.4908875,7.03213414 C12.1362236,7.38683338 11.9588916,7.80969809 11.9588916,8.30084198 C11.9588916,9.26485186 11.6133515,10.1197913 10.9222144,10.8656034 C10.2128865,11.5749451 9.37625133,11.9387406 8.41230893,11.9569617 L8.30322091,11.9569617 Z M8.32794904,17.414236 C7.8186632,17.414236 7.38665988,17.5916709 7.03199593,17.9463701 C6.67733198,18.3010694 6.5,18.7239341 6.5,19.2150496 C6.5,19.7426071 6.68642738,20.1836076 7.05931057,20.5383068 C7.43219375,20.8930061 7.88233104,21.0612594 8.40972242,21.0431236 C9.39188406,21.079452 10.2285192,21.4523723 10.9196279,22.1617708 C11.610765,22.8529766 11.9563904,23.6987913 11.9563904,24.6992433 C11.9563904,25.1903588 12.1291462,25.6133088 12.4747148,25.968008 C12.8202833,26.3227357 13.2385867,26.5 13.7296533,26.5 L13.7841973,26.5 C14.2752639,26.5 14.6981718,26.3227357 15.0528642,25.968008 C15.4075282,25.6133088 15.5848601,25.1903588 15.5848601,24.6992433 C15.5848601,23.6987913 15.9304287,22.8529766 16.6215374,22.1617708 C17.2944552,21.4523723 18.1401858,21.079452 19.1587575,21.0431236 L19.2405308,21.0431236 C20.1499292,21.0431236 20.7319499,20.5883365 20.9865644,19.6788477 C21.1139285,19.133268 21.0047552,18.61475 20.6592151,18.1236345 C20.3136465,17.6143833 19.8134561,17.3779645 19.1587575,17.414236 C18.1766242,17.3961855 17.3308653,17.0323047 16.6215374,16.3228778 C15.9505523,15.5988968 15.6054101,14.7720138 15.5857412,13.842314 C15.5868782,13.8142576 15.5874182,13.7861443 15.5874182,13.7576899 C15.5874182,12.7753737 15.9329015,11.9387406 16.6240386,11.2475632 C17.3151757,10.5381363 18.1518677,10.1652444 19.1340293,10.1288023 C20.1707065,10.1106666 21.0527903,10.4653942 21.7803374,11.1929285 C22.5260754,11.9569617 22.8897779,12.8391048 22.8715587,13.8394999 C22.8897779,14.3306153 23.0762053,14.7444406 23.4308692,15.0810325 C23.7855332,15.4175107 24.2083843,15.585764 24.6994509,15.585764 C25.1906027,15.585764 25.6134254,15.4083291 25.9680893,15.0536299 C26.3227533,14.6989306 26.5,14.2669412 26.5,13.7576899 C26.5,13.2483819 26.3090533,12.8163924 25.92716,12.4616932 C25.5451814,12.1069939 25.1087441,11.9387406 24.6176775,11.9569617 C23.6355159,11.9387406 22.7897853,11.5749451 22.0804574,10.8656034 C21.3893203,10.1197913 21.0437517,9.26485186 21.0437517,8.30084198 L21.0437517,8.27352462 L21.0437517,8.21897519 L21.0437517,8.16439733 L21.0437517,8.10984789 L21.0437517,8.08253054 C21.0437517,8.06442319 21.0346563,8.04620215 21.0164371,8.0279811 L21.0164371,8.00066375 L21.0164371,7.94611431 C21.0164371,7.92792169 21.0073417,7.90978592 20.9892077,7.89156488 L20.9892077,7.86424752 L20.9892077,7.80969809 L20.9618078,7.78238073 L20.9618078,7.7278313 C20.9618078,7.7278313 20.9574022,7.72333999 20.9481931,7.71412998 C20.939183,7.70511895 20.9345785,7.69150291 20.9345785,7.67328186 L20.9345785,7.64596451 C20.9163876,7.64596451 20.9073491,7.62777189 20.9073491,7.59141507 L20.8800344,7.56409772 C20.8800344,7.56409772 20.8754583,7.55960641 20.8664198,7.55048168 C20.8573244,7.54147065 20.8527198,7.52768405 20.8527198,7.50954828 L20.8527198,7.48223093 C20.8346143,7.48223093 20.8254052,7.47321989 20.8254052,7.45499885 C20.8254052,7.45499885 20.8209143,7.45042227 20.8117905,7.44138281 C20.8027804,7.4322865 20.7981758,7.41867046 20.7981758,7.40044941 L20.7709464,7.40044941 L20.7709464,7.37313206 L20.7435465,7.3458147 L20.7435465,7.29126527 L20.7163172,7.26403319 L20.6890878,7.23671583 C20.6890878,7.23671583 20.6845117,7.23219611 20.6753878,7.22301452 C20.6663777,7.21400349 20.6617731,7.20038745 20.6617731,7.1821664 L20.6345438,7.15484904 C20.616353,7.15484904 20.6071439,7.14575273 20.6071439,7.12753169 C20.6071439,7.12753169 20.6027099,7.12301196 20.5935292,7.11391565 C20.5845191,7.10481934 20.5799145,7.0912033 20.5799145,7.07298225 L20.5526851,7.07298225 L20.5526851,7.04575018 C20.5344943,7.04575018 20.5253705,7.03665387 20.5253705,7.0185181 L20.4980559,6.99111546 C20.4799219,6.99111546 20.4617311,6.98210443 20.4435118,6.96388339 L20.4162825,6.93656603 L20.3889678,6.93656603 L20.3889678,6.90933395 C20.370777,6.90933395 20.3616532,6.90023764 20.3616532,6.8820166 C20.3253284,6.8820166 20.3071092,6.87292029 20.3071092,6.85469924 L20.2798798,6.85469924 L20.2798798,6.82746716 L20.2524799,6.8001498 C20.2162404,6.8001498 20.1980212,6.79105349 20.1980212,6.77283245 L20.1707065,6.77283245 L20.1434772,6.74560037 C20.1252579,6.74560037 20.1116433,6.74108064 20.1024626,6.73198433 C20.0934524,6.72288802 20.0888479,6.71828301 20.0888479,6.71828301 L20.0616185,6.69105094 L20.0343039,6.69105094 L20.0343039,6.66381886 L19.9797599,6.66381886 L19.9524452,6.63641622 C19.934226,6.63641622 19.9160352,6.62740519 19.897816,6.60918415 L19.8433572,6.60918415 L19.8160426,6.58186679 L19.7614986,6.58186679 L19.7341839,6.55463471 L19.6796399,6.55463471 C19.6614207,6.55463471 19.647806,6.55002971 19.6387106,6.54101867 C19.6296152,6.53183709 19.6250959,6.52731736 19.6250959,6.52731736 L19.5977813,6.52731736 L19.5705519,6.52731736 C19.5523327,6.52731736 19.538718,6.52279763 19.5295373,6.51361604 C19.5204988,6.50460501 19.5159226,6.5 19.5159226,6.5 L19.4613786,6.5 L19.4341493,6.5 L19.37952,6.5 L19.324976,6.5 L19.270432,6.5 L19.2431173,6.5 L19.215888,6.5 L19.1885733,6.5 L19.1612587,6.5 L19.1340293,6.5 L19.1067147,6.5 L19.0794853,6.5 L19.0521707,6.5 L19.024856,6.5 L18.9976267,6.5 L18.970312,6.5 L18.9430827,6.5 C18.9430827,6.51822105 18.9339588,6.52731736 18.915768,6.52731736 L18.8884534,6.52731736 L18.861224,6.52731736 L18.8339094,6.52731736 L18.8065947,6.55463471 L18.7793654,6.55463471 L18.7520507,6.55463471 L18.7248214,6.55463471 L18.6975067,6.58186679 L18.6701921,6.58186679 L18.6429627,6.58186679 L18.6156481,6.60918415 L18.5883903,6.60918415 L18.5611041,6.60918415 L18.5611041,6.63641622 L18.5337894,6.63641622 L18.5065316,6.63641622 L18.4792454,6.66381886 L18.4519308,6.66381886 L18.4519308,6.69105094 L18.424673,6.69105094 L18.3973868,6.69105094 L18.370129,6.71828301 L18.3428996,6.71828301 C18.3428996,6.73650406 18.3337189,6.74560037 18.3155281,6.74560037 C18.2973089,6.74560037 18.2882703,6.75469668 18.2882703,6.77283245 L18.2609557,6.77283245 L18.2337263,6.8001498 L18.2064117,6.82746716 C18.1883062,6.82746716 18.1790971,6.83647819 18.1790971,6.85469924 L18.1518677,6.85469924 L18.124553,6.85469924 L18.124553,6.8820166 L18.0972384,6.90933395 C18.0791329,6.90933395 18.070009,6.91843026 18.070009,6.93656603 L18.0426944,6.93656603 L18.015465,6.93656603 L17.9882357,6.96388339 C17.9882357,6.98210443 17.979055,6.99111546 17.9608358,6.99111546 L17.9608358,7.0185181 L17.9336064,7.0185181 L17.9336064,7.04575018 L17.9062917,7.07298225 C17.8881862,7.07298225 17.8790624,7.08207856 17.8790624,7.10029961 L17.8517477,7.12753169 L17.8244331,7.15484904 C17.5516278,7.48223093 17.4153104,7.84614018 17.4153104,8.24626412 C17.4334444,9.26485186 17.0696566,10.1470234 16.3240039,10.8928355 C15.6249083,11.5919438 14.8060661,11.947439 13.8671929,11.959122 C13.839793,11.9580134 13.8120804,11.9574449 13.7841973,11.9574449 C13.7639884,11.9574449 13.7439217,11.9577576 13.7237697,11.9583261 L13.6776958,11.9569617 C13.6371644,11.9600885 13.5971162,11.9642956 13.5576364,11.9696965 C13.1456146,12.015377 12.78916,12.1885196 12.4883295,12.4894085 C12.1336655,12.8441077 11.9563904,13.2670577 11.9563904,13.7581732 C11.9563904,14.2493171 12.1246269,14.6722671 12.4611001,15.0269663 C12.7975448,15.3815803 13.2022619,15.5680262 13.6751093,15.5862472 C13.7046125,15.5856787 13.7338599,15.5854513 13.7630221,15.5855934 L13.7684793,15.5855934 L13.7868691,15.585764 C14.7405507,15.5943771 15.5763048,15.9402358 16.294188,16.6230276 C17.0216499,17.3142335 17.3944478,18.1600482 17.4126386,19.1605001 C17.4308579,20.1791731 17.0761939,21.0522199 16.3486468,21.7798395 C15.6393189,22.5073737 14.7935883,22.8711692 13.8115119,22.8711692 L13.7841973,22.8711692 L13.7296533,22.8711692 C12.7293861,22.8711692 11.8744749,22.5073737 11.1651186,21.7798395 C10.4558759,21.0340273 10.1103074,20.1609521 10.1285266,19.1605001 C10.1103074,18.6876057 9.92387999,18.2782718 9.56921603,17.9327541 C9.21455208,17.5870659 8.80082484,17.414236 8.32794904,17.414236 Z"/>
</svg>

<svg xmlns="http://www.w3.org/2000/svg" width="32" height="32"><path fill="#FFF" fill-rule="evenodd" d="M16 32C7.163 32 0 24.837 0 16S7.163 0 16 0s16 7.163 16 16-7.163 16-16 16zM8.303 11.957c-.927 0-1.51.446-1.746 1.337-.036.273-.023.55.041.832.064.282.173.537.327.764.155.227.355.405.6.532.246.127.542.182.887.164a3.57 3.57 0 0 1 2.51 1.118 3.42 3.42 0 0 1 1.037 2.51c0 .51.177.942.532 1.297.355.354.787.532 1.296.532.49 0 .914-.178 1.268-.532.355-.355.532-.787.532-1.296 0-.473-.168-.887-.504-1.242a1.71 1.71 0 0 0-1.214-.56c-.964.019-1.837-.318-2.62-1.009-.709-.69-1.082-1.555-1.118-2.592-.036-1 .318-1.873 1.064-2.62.746-.745 1.637-1.1 2.674-1.063a1.71 1.71 0 0 0 1.214-.56 1.78 1.78 0 0 0 .504-1.268c0-.491-.177-.914-.532-1.269a1.732 1.732 0 0 0-1.268-.532c-.51 0-.941.177-1.296.532a1.732 1.732 0 0 0-.532 1.269c0 .964-.346 1.819-1.037 2.565-.71.709-1.546 1.073-2.51 1.091h-.109zm.025 5.457c-.51 0-.941.178-1.296.532a1.732 1.732 0 0 0-.532 1.269c0 .528.186.969.56 1.323.372.355.822.523 1.35.505a3.57 3.57 0 0 1 2.51 1.119c.69.691 1.036 1.537 1.036 2.537 0 .491.173.914.519 1.269.345.355.764.532 1.255.532h.054c.491 0 .914-.177 1.269-.532.355-.355.532-.778.532-1.269 0-1 .345-1.846 1.037-2.537.672-.71 1.518-1.083 2.537-1.119h.082c.909 0 1.49-.455 1.746-1.364.127-.546.018-1.064-.328-1.555-.345-.51-.846-.746-1.5-.71-.982-.018-1.828-.382-2.537-1.091-.671-.724-1.017-1.551-1.036-2.48l.001-.085c0-.983.346-1.82 1.037-2.51a3.57 3.57 0 0 1 2.51-1.12c1.037-.017 1.919.337 2.646 1.065.746.764 1.11 1.646 1.092 2.646.018.492.204.905.559 1.242a1.78 1.78 0 0 0 1.268.505c.492 0 .914-.178 1.27-.532.354-.355.531-.787.531-1.296 0-.51-.19-.942-.573-1.296-.382-.355-.818-.523-1.31-.505-.981-.018-1.827-.382-2.537-1.091-.69-.746-1.036-1.601-1.036-2.565v-.218c0-.019-.01-.037-.028-.055v-.082c0-.018-.009-.036-.027-.054V7.81l-.027-.028v-.054l-.014-.014c-.009-.009-.013-.022-.013-.04v-.028c-.019 0-.028-.018-.028-.055l-.027-.027-.014-.014c-.009-.009-.013-.022-.013-.04v-.028c-.018 0-.028-.009-.028-.027l-.013-.014c-.01-.009-.014-.022-.014-.04h-.027v-.028l-.027-.027V7.29l-.028-.027-.027-.027-.014-.014c-.009-.009-.013-.023-.013-.04l-.027-.028c-.019 0-.028-.01-.028-.027l-.013-.014c-.01-.01-.014-.023-.014-.041h-.027v-.027c-.019 0-.028-.01-.028-.027l-.027-.028c-.018 0-.036-.009-.054-.027l-.028-.027h-.027v-.028c-.018 0-.027-.009-.027-.027-.037 0-.055-.01-.055-.027h-.027v-.028l-.028-.027c-.036 0-.054-.009-.054-.027h-.027l-.028-.027c-.018 0-.031-.005-.04-.014a4.615 4.615 0 0 0-.014-.014l-.027-.027h-.028v-.027h-.054l-.028-.028c-.018 0-.036-.009-.054-.027h-.055l-.027-.027h-.055l-.027-.027h-.054c-.019 0-.032-.005-.041-.014l-.014-.014h-.054c-.019 0-.032-.004-.041-.013l-.014-.014H18.943c0 .018-.009.027-.027.027h-.082l-.027.028h-.082l-.027.027h-.055l-.027.027h-.055v.027h-.054l-.028.028h-.027v.027h-.055l-.027.027h-.027c0 .019-.01.028-.027.028-.019 0-.028.009-.028.027h-.027l-.027.027-.028.027c-.018 0-.027.01-.027.028h-.054v.027l-.028.027c-.018 0-.027.01-.027.028h-.055l-.027.027c0 .018-.009.027-.027.027v.028h-.027v.027l-.028.027c-.018 0-.027.01-.027.027l-.027.028-.028.027c-.272.327-.409.691-.409 1.091.018 1.019-.345 1.901-1.091 2.647-.7.699-1.518 1.054-2.457 1.066a2.055 2.055 0 0 0-.143 0l-.046-.002c-.04.003-.08.007-.12.013a1.746 1.746 0 0 0-1.07.52 1.732 1.732 0 0 0-.532 1.268c0 .491.169.914.505 1.269a1.71 1.71 0 0 0 1.302.559h.024c.954.008 1.79.354 2.507 1.037a3.458 3.458 0 0 1 1.119 2.538c.018 1.018-.337 1.891-1.064 2.619-.71.727-1.555 1.091-2.537 1.091h-.082c-1 0-1.856-.364-2.565-1.091-.71-.746-1.055-1.619-1.036-2.62a1.757 1.757 0 0 0-.56-1.227 1.723 1.723 0 0 0-1.241-.519z"/></svg>
